Adwaita++/actions/16/edit-undo.svg

<svg xmlns="http://www.w3.org/2000/svg" fill="none" width="16" height="16" viewBox="0 0 16 16">
 <path fill="#444" d="M3.99988 6V8H10.4999C11.3401 8 11.9999 8.65973 11.9999 9.5C11.9999 10.3403 11.3401 11 10.4999 11H9.99988V13H10.4999C12.421 13 13.9999 11.4211 13.9999 9.5C13.9999 7.57885 12.421 6 10.4999 6H3.99988Z"/>
 <path fill="#444" d="M6.99988 3.02209V4.02209C6.99988 4.27898 6.87005 4.55055 6.68738 4.74084L4.40613 7.02209L6.68738 9.30334C6.87005 9.49363 6.99988 9.7652 6.99988 10.0221V11.0221H5.99988C5.69043 11.0221 5.44756 10.9318 5.24988 10.7408L1.59363 7.02209L5.24988 3.30334C5.44756 3.11239 5.69043 3.02209 5.99988 3.02209H6.99988Z"/>
</svg>

<svg xmlns="http://www.w3.org/2000/svg" width="16" height="16">
    <path d="M4 6v2h6.5c.84 0 1.5.66 1.5 1.5s-.66 1.5-1.5 1.5H10v2h.5c1.921 0 3.5-1.579 3.5-3.5S12.421 6 10.5 6z" style="line-height:normal;font-variant-ligatures:normal;font-variant-position:normal;font-variant-caps:normal;font-variant-numeric:normal;font-variant-alternates:normal;font-feature-settings:normal;text-indent:0;text-align:start;text-decoration-line:none;text-decoration-style:solid;text-decoration-color:#000;text-transform:none;text-orientation:mixed;shape-padding:0;isolation:auto;mix-blend-mode:normal;marker:none" color="#000" font-weight="400" font-family="sans-serif" white-space="normal" overflow="visible" fill="#474747"/>
    <path d="M7 3.022v1c0 .257-.13.529-.313.719l-2.28 2.281 2.28 2.281c.183.19.313.462.313.72v1H6c-.31 0-.552-.091-.75-.282L1.594 7.022 5.25 3.303c.198-.19.44-.28.75-.28z" style="line-height:normal;-inkscape-font-specification:'Bitstream Vera Sans';text-indent:0;text-align:start;text-decoration-line:none;text-transform:none;marker:none" color="#bebebe" font-weight="400" font-family="Bitstream Vera Sans" overflow="visible" fill="#474747"/>
</svg>
